X:7
T:Planxty Davis
T:Killiecrankie
R:air
C:Thomas Connellan (c. 1640 - 1698)
H:Also played as a set dance
Z:id:hn-air-7
M:C|
L:1/8
K:D
FG | A2AB A2FG | AFAB A3B | AGFE DEFG | A2AB A2FA | 
B2Bc B2FA | BABc B2dB | AGFE DEFA | B2Bc B2b2 | 
bafb afeg | fedf e2de | fedc BAdF | A2AB A2dc | 
B2AB d2cd | e2de f2ed | BABc d2F2 | E4D2 :|
|: fg | a2ab a2fg | agab a2fg | agfe defg | a2ab a2fa |
b2bc' b2fa | bafa b2bg | agfe defa | b2ba b2fa |
bafb afeg | fedf e2de | fedc BAdF | A2AB A2dc |
B2AB d2cd | e2de f2ed | BABc d2F2 | E4D2 :| 
<end>
<start>
